!!!!SEGMENT: pl-wtm--r-258-m--005_moniuszko-stanislaw--msza-offertorium.krn
!!!cenid: 18xx:2539
!!!COM: Moniuszko, Stanisław
!!!COM-rismid: pe30008351
!!!CDT: 1819/05/05-1872/06/04
!!!CNT: Polish
!!!OPR: Msza
!!!OTL: Offertorium
!!!OMV: 005
!!!PDT: 1870
!!!AGN: Sacred; Mass
!!!SMS-siglum: PL-Wtm
!!!SMS-shelfmark: R 258/M
!!!SMS-shelfwork: 001-005 M
!!!SMS-variant:
!!!SMS-altvar:
!!!NIFC-rismid: 1001095348
!!!URL-scan: http://repozytorium.nifc.pl/skany/pl-wtm-nut--r258m
!!!ONB-nifc: UWAGA: części Mszy: 1. Kyrie, 2. Et in terra, 3. Graduale, 4. Credo, 5. Offertorium,
**kern	**kern	**dynam	**kern	**text	**dynam	**kern	**text	**dynam
*	*	*	*group1	*	*	*group1	*	*
*part3	*part3	*part3	*part2	*part2	*part2	*part1	*part1	*part1
*staff4	*staff3	*	*staff2	*staff2	*	*staff1	*staff1	*
*I"	*I"	*	*I"Alto	*	*	*I"Sopr.	*	*
*clefF4	*clefG2	*	*clefG2	*	*	*clefG2	*	*
*k[f#c#g#]	*k[f#c#g#]	*	*k[f#c#g#]	*	*	*k[f#c#g#]	*	*
*f#:	*f#:	*	*f#:	*	*	*f#:	*	*
*M4/4	*M4/4	*	*M4/4	*	*	*M4/4	*	*
*met(c)	*met(c)	*	*met(c)	*	*	*met(c)	*	*
*all\right	*all\right	*	*all\right	*	*	*all\right	*	*
*2\right	*2\right	*	*2\right	*	*	*2\right	*	*
=1	=1	=1	=1	=1	=1	=1	=1	=1
*	*clefF4	*	*	*	*	*	*	*
!	!	!	!	!	!	!LO:TX:t=P:problem:kolejność znaków f# c# g#	!	!
!	!	!	!	!	!	!LO:TX:a:t=non troppo lento	!	!
!	!	!LO:DY:t=p.	!LO:TX:t=P:problem:kolejność znaków f# c# g#	!	!	!	!	!
!LO:TX:a:t=senza pedale	!LO:TX:t=P:problem:kolejność znaków f# c# g#	!	!	!	!	!	!	!
!	!	!	!LO:TX:t=P:problem:nazwa instrumentu wpisana niebieską kredką	!	!	!LO:TX:t=P:problem:nazwa instrumentu wpisana niebieską kredką	!	!
(4FF#/	8r	p	1r@	.	.	1r@	.	.
.	8c# 8A 8F#\	.	.	.	.	.	.	.
*	*rep	*	*	*	*	*	*	*
4AA/	8r	.	.	.	.	.	.	.
.	8c# 8A 8F#\	.	.	.	.	.	.	.
*	*Xrep	*	*	*	*	*	*	*
*	*rep	*	*	*	*	*	*	*
4C#/	8r	.	.	.	.	.	.	.
.	8c# 8A 8F#\	.	.	.	.	.	.	.
*	*Xrep	*	*	*	*	*	*	*
4E#X\	8r	.	.	.	.	.	.	.
.	8c# 8B 8G#\	.	.	.	.	.	.	.
=2	=2	=2	=2	=2	=2	=2	=2	=2
!	!	!	!	!	!	!LO:TX:a:t=Offertorium.:note=podkreślone	!	!
4F#\	8r	.	1r@	.	.	1r@	.	.
.	8c# 8A\	.	.	.	.	.	.	.
4C#/	8r	.	.	.	.	.	.	.
.	8c# 8A 8F#\	.	.	.	.	.	.	.
4AA/	(8f#L 8c# 8A\	.	.	.	.	.	.	.
.	8c#J 8A 8F#\)	.	.	.	.	.	.	.
4GG#/	8r	.	.	.	.	.	.	.
.	8c# 8B 8E#X\	.	.	.	.	.	.	.
=3	=3	=3	=3	=3	=3	=3	=3	=3
!	!	!	!LO:TX:color=dodgerblue:t=Solo	!	!	!	!	!
4FF#/	8c# 8A 8F#\	.	4.c#/	De-	.	1r	.	.
*	*clefG2	*	*	*	*	*	*	*
.	8c# 8A< 8F#</	.	.	.	.	.	.	.
4AA/	8r	.	.	.	.	.	.	.
.	8f# 8c# 8F#</	.	8f#/	-us	.	.	.	.
4C#\	8r	.	(4.a/	me-	.	.	.	.
.	8f# 8c# 8A/	.	.	.	.	.	.	.
4E#X\	8r	.	.	.	.	.	.	.
.	8c# 8B 8G#/	.	8g#/)	.	.	.	.	.
=4	=4	=4	=4	=4	=4	=4	=4	=4
4F#\	8r	.	2f#/	-us!	.	2r	.	.
.	8c# 8A/	.	.	.	.	.	.	.
4C#\	8r	.	.	.	.	.	.	.
.	8f# 8c# 8A/	.	.	.	.	.	.	.
4AA/	8r	.	2r	.	.	4r	.	.
.	8a 8c# 8A/	.	.	.	.	.	.	.
!	!	!	!	!	!	!LO:TX:a:t=Solo:color=dodgerblue	!	!
4FF#/)	8r	.	.	.	.	8a/L	ne	.
.	8f# 8c# 8A/	.	.	.	.	8b/J	.	.
!!LO:LB:g=original
=5	=5	=5	=5	=5	=5	=5	=5	=5
8EE/	8r	.	1r	.	.	4cc#\	in	.
8r	8g# 8c# 8G#/	.	.	.	.	.	.	.
*	*rep	*	*	*	*	*	*	*
8E\	8r	.	.	.	.	4cc#\	fu-	.
8r	8g# 8c# 8G#/	.	.	.	.	.	.	.
*	*Xrep	*	*	*	*	*	*	*
8FF#/	8r	.	.	.	.	4ee\	-ro-	.
8r	8a 8c# 8A/	.	.	.	.	.	.	.
8F#\	8r	.	.	.	.	8dd\L	-re	.
8r	8a 8d 8A/	.	.	.	.	8cc#\J	.	.
=6	=6	=6	=6	=6	=6	=6	=6	=6
(>4GG#/	8r	.	1r	.	.	2b\	tu-	.
.	8e 8d 8B/	.	.	.	.	.	.	.
4E 4EE/	8r	.	.	.	.	.	.	.
.	8g# 8e 8d 8B/	.	.	.	.	.	.	.
8AA/)	8r	.	.	.	.	4cc#\	-o	.
8r	8a 8e 8c#/	.	.	.	.	.	.	.
(4A\	8r	.	.	.	.	4r	.	.
.	8e 8c#/	.	.	.	.	.	.	.
=7	=7	=7	=7	=7	=7	=7	=7	=7
8D\)	8r	.	1r	.	.	(4.f#/	ar	.
8r	8f# 8d 8A/	.	.	.	.	.	.	.
8D\	8r	.	.	.	.	.	.	.
8r	8f# 8B 8G#/	.	.	.	.	8g#/)	.	.
8D\	8r	.	.	.	.	4a\	gu-	.
8r	8f# 8A 8F#/	.	.	.	.	.	.	.
8D\	8r	.	.	.	.	4a\	-as	.
8r	8f# 8B/	.	.	.	.	.	.	.
=8	=8	=8	=8	=8	=8	=8	=8	=8
(<4C#\	8r	.	1r	.	.	2cc#\	me	.
.	8e#X 8c# 8G#/	.	.	.	.	.	.	.
4BB\	8r	.	.	.	.	.	.	.
.	8g# 8e# 8c#/	.	.	.	.	.	.	.
4AA\	8r	.	.	.	.	4r	.	.
.	8f# 8c#/	.	.	.	.	.	.	.
8BB\L	8r	.	.	.	.	4cc#\	ne	.
8C#\J	8f# 8A< 8F#</	.	.	.	.	.	.	.
=9	=9	=9	=9	=9	=9	=9	=9	=9
8D\)	8r	.	1r	.	.	4cc#\	in	.
8r	8f# 8A< 8F#</	.	.	.	.	.	.	.
8D\	8r	.	.	.	.	8f#/L	fu-	.
8r	8g# 8f# 8B/	.	.	.	.	8g#/J	.	.
8D\	8r	.	.	.	.	4a/	-ro-	.
8r	8a 8f# 8d/	.	.	.	.	.	.	.
(>8D\L	8r	.	.	.	.	8b\L	re	.
8C#\J	8a 8e/	.	.	.	.	8cc#\J	.	.
!!LO:LB:g=original
=10	=10	=10	=10	=10	=10	=10	=10	=10
4BB/	8r	.	1r	.	.	(4.dd\	tu-	.
.	8a 8f# 8d/	.	.	.	.	.	.	.
4F#\	8r	.	.	.	.	.	.	.
.	8a 8d#X 8B#X/	.	.	.	.	8dd#X\)	.	.
4E\	8r	.	.	.	.	(4.ee\	-o	.
.	8a 8e 8c#/	.	.	.	.	.	.	.
(>4AA/)	8r	.	.	.	.	.	.	.
.	8a 8e#X 8c#/	.	.	.	.	8ee#X\)	.	.
=11	=11	=11	=11	=11	=11	=11	=11	=11
4DD/	8r	.	1r	.	.	2ff#\	ne-	.
.	8a 8f# 8d/	.	.	.	.	.	.	.
4D\	8r	.	.	.	.	.	.	.
.	8f# 8d 8A/	.	.	.	.	.	.	.
4C#/	8r	.	.	.	.	8een\	-que	.
.	8f# 8A 8F#/	.	.	.	.	16r	.	.
.	.	.	.	.	.	16dd\	in	.
!	!	!	!	!	!	!LO:TX:t=P:problem:w rękopisie i pierwodruku konsekwentnie użyta forma "iram tuam", popr. "ira tua"	!	!
4BB/)	8r	.	.	.	.	8.dd\	i-	.
.	8f# 8d 8B/	.	.	.	.	.	.	.
.	.	.	.	.	.	16cc#\	-ram	.
=12	=12	=12	=12	=12	=12	=12	=12	=12
8AA#X/	8r	.	2gn^/	ne-	.	2.ee\	tu-	.
8r	8gn 8e 8c#/	.	.	.	.	.	.	.
8AA#/	8r	.	.	.	.	.	.	.
8r	(8g 8e 8c#/	.	.	.	.	.	.	.
8AA#/	8f#/L)	.	8f#/	-que	.	.	.	.
8r	8f#J 8e 8c#/	.	16r	.	.	.	.	.
.	.	.	16e/	in	.	.	.	.
(4AA#/	8r	.	8.e/	i-	.	8ee\	-am	.
.	8f# 8e 8c#/	.	.	.	.	8r	.	.
.	.	.	16d/	-ram	.	.	.	.
=13	=13	=13	=13	=13	=13	=13	=13	=13
4BB/	8r	.	2f#/	tu-	.	2dd\	ne-	.
.	8f# 8d 8B/	.	.	.	.	.	.	.
4GG#/	8r	.	.	.	.	.	.	.
.	8f# 8d 8B/	.	.	.	.	.	.	.
4EE#X/	8r	.	8.g#/	-am	.	8.cc#\	-que	.
.	8g# 8c# 8B/	.	.	.	.	.	.	.
.	.	.	16g#/	in	.	16b/	in	.
4C#/	8r	.	8.f#/	i-	.	8.a/	i-	.
.	8g# 8e#X 8c#/	.	.	.	.	.	.	.
.	.	.	16e/	-ram	.	16g#/	-ram	.
=14	=14	=14	=14	=14	=14	=14	=14	=14
*^	*	*	*	*	*	*	*	*
!LO:N:vis=2	!	!	!	!	!	!	!	!	!
4FF#/	(>2FF#\	8r	.	2g#/	tu-	.	2b/	tu-	.
.	.	8g# 8e#X 8c#/	.	.	.	.	.	.	.
4C#/	.	8r	.	.	.	.	.	.	.
.	.	8g# 8e# 8c#/	.	.	.	.	.	.	.
8F#\))	2ryy	8r	.	8f#/	-am	.	8a/	-am	.
8r	.	8a 8f# 8c#/	.	8r@	.	.	8r	.	.
4F#\	.	8r	.	4a/	cor-	.	4a/	cor-	.
.	.	8a 8f# 8c#/	.	.	.	.	.	.	.
*v	*v	*	*	*	*	*	*	*	*
!!LO:PB:g=original
=15	=15	=15	=15	=15	=15	=15	=15	=15
8EE/	8bL 8a 8e/	.	4a/	-ri-	.	4b\	-ri-	.
8r	8bJ 8a 8e/	.	.	.	.	.	.	.
8E\	8r	.	4a/	-[pi-	.	4b\	-pi-	.
8r	(8b 8a 8e/	.	.	.	.	.	.	.
8EE/	8g#/L)	.	4g#/	-as	.	4b\	-as	.
8r	(8b 8g# 8e/	.	.	.	.	.	.	.
8E\	8cc# 8a/)	.	8a/L	me	.	8cc#\L	me	.
8r	8ddJ 8b 8e/	.	8b/J	.	.	8dd\J	.	.
=16	=16	=16	=16	=16	=16	=16	=16	=16
(>4AA/	8r	.	4..b/	Do-	.	4..dd^\	Do-	.
.	8b 8g# 8e/	.	.	.	.	.	.	.
4E\	8r	.	.	.	.	.	.	.
.	8b 8e 8d/	.	.	.	.	.	.	.
.	.	.	16b/	-mi-	.	16dd\	-mi-	.
8A\)	8r	.	8a/	-ne,	.	8cc#\	-ne,	.
8r	8cc# 8e 8c#/	.	8r	.	.	8r	.	.
(4AA/	8r	.	4a/	cor-	.	4cc#\	cor-	.
.	[8cc# 8a [8e/	.	.	.	.	.	.	.
=17	=17	=17	=17	=17	=17	=17	=17	=17
8GGn/)	8cc#]L 8b 8e/]	.	4b\	-ri-	.	4cc#\	-ri-	.
8r	8cc#J 8b 8e/	.	.	.	.	.	.	.
(4Gn\	8r	.	4b\	-pi-	.	4cc#\	-pi-	.
.	(8cc# 8b 8e/	.	.	.	.	.	.	.
8F#\)	8a#X/L)	.	4a#X\	-as	.	4cc#\	-as	.
8r	(8cc#/ 8a#/ 8f#/	.	.	.	.	.	.	.
4F# 4FF#\	8dd/ 8b/)	.	8b\L	me	.	8dd\L	me	.
.	8ee/J 8cc#/ 8f#/	.	8cc#\J	.	.	8ee\J	.	.
=18	=18	=18	=18	=18	=18	=18	=18	=18
(4BB\	8r	.	4..cc#^\	Do-	.	4..ee^\	Do-	.
.	8cc# 8a#X 8f#/	.	.	.	.	.	.	.
4F#\	8r	.	.	.	.	.	.	.
.	8cc# 8a# 8e/	.	.	.	.	.	.	.
.	.	.	16cc#\	-mi-	.	16ee\	-mi-	.
4B\	8r	.	8b\	-ne	.	8dd\	-ne	.
.	8dd 8b 8d/	.	8r	.	.	8r	.	.
4An\	8r	.	8.dd\	ne-	.	8.ff#\	ne-	.
.	8b 8f# 8d/	.	.	.	.	.	.	.
.	.	.	16dd\	-que]	.	16ee\	-que	.
=19	=19	=19	=19	=19	=19	=19	=19	=19
4G#\	8r	.	4dd\	in	.	2.ee\	in	.
.	8b 8e 8d/	.	.	.	.	.	.	.
4E\	8r	.	8.cc#/	i-	.	.	.	.
.	8e 8d/	.	.	.	.	.	.	.
.	.	.	16b#X/	-ram	.	.	.	.
4A\	8r	.	[2cc#\	tu-	.	.	.	.
.	8cc# 8e 8c#/	.	.	.	.	.	.	.
4G#\	8r	.	.	.	.	8.ee\	i-	.
.	8cc# 8e 8c#/	.	.	.	.	.	.	.
.	.	.	.	.	.	16dd\	-ram	.
!!LO:LB:g=original
=20	=20	=20	=20	=20	=20	=20	=20	=20
4F#\	8r	.	8cc#\]	.	.	[2dd\	tu-	.
.	8cc# 8a 8d/	.	8cc#\	-am	.	.	.	.
4Dn\	8r	.	8.b/	Do-	.	.	.	.
.	8f# 8d/	.	.	.	.	.	.	.
.	.	.	16a#X/	-mi-	.	.	.	.
4Gn\	8r	.	8b/	-ne!	.	8dd\]	-am	.
.	8b 8gn 8d/	.	8r	.	.	8r	.	.
4F#\	8r	.	4b/	cor-	.	8.dd\L	cor-	.
.	8b 8d/	.	.	.	.	.	.	.
.	.	.	.	.	.	16cc#\Jk	.	.
!!LO:TX:t=P:problem:5 taktów skreślonych
!!LO:LB:g=original
=21	=21	=21	=21	=21	=21	=21	=21	=21
4E#X\	8r	.	4b/	-ri-	.	4cc#\	-ri-	.
.	8b 8g#X 8c#/	.	.	.	.	.	.	.
4F#\	8r	.	4a/	-[pi-	.	8dd\L	-pi-	.
.	8a 8f# 8c#/	.	.	.	.	8cc#\J	.	.
4D\)	8r	.	8g#/L	-es	.	4b\	-es	.
.	8b 8a 8f#/	.	8a/J	.	.	.	.	.
(4D\	8r	.	8g#/L	me	.	4b#X\	me	.
.	8b#X 8g# 8f#/	.	8f#/J	.	.	.	.	.
=22	=22	=22	=22	=22	=22	=22	=22	=22
4C#\	8r	.	4e#X/	Do-	.	4.cc#\	Do-	.
.	8cc# 8g# 8e#X/	.	.	.	.	.	.	.
4E#X\	8r	.	4g#/	-mi-	.	.	.	.
.	8g# 8c#/	.	.	.	.	8bn\	-mi-	.
4F#\)	8r	.	8f#/	-ne,	.	8a/	-ne,	.
.	8a 8f# 8c#/	.	8r	.	.	8r	.	.
(<4C#\	8r	.	4a/	ne	.	4a/	ne	.
.	8a 8en/	.	.	.	.	.	.	.
=23	=23	=23	=23	=23	=23	=23	=23	=23
*	*^	*	*	*	*	*	*	*
4D\	8r	8rgyy	.	4a/	in	.	4b\	in	.
.	8b 8a/	(4f#\	.	.	.	.	.	.	.
4D#X\	8r	.	.	4a/	fu-	.	4b\	fu-	.
.	8b 8a/	4fn\	.	.	.	.	.	.	.
4E\	8r	.	.	4g#/	-ro-	.	4b\	-ro-	.
.	(<8bL 8g#/	4e\	.	.	.	.	.	.	.
4E#X\	8cc#/)	.	.	4g#/	-re	.	8cc#\L	-re	.
.	8ddJ 8b 8g#/	8d\)	.	.	.	.	8dd\J	.	.
*	*v	*v	*	*	*	*	*	*	*
=24	=24	=24	=24	=24	=24	=24	=24	=24
4F#\	8r	.	(4a/	tu-	.	2dd\	tu-	.
.	8dd 8a/	.	.	.	.	.	.	.
4G#\	8r	.	4b/)	.	.	.	.	.
.	8b 8e/	.	.	.	.	.	.	.
4A\)	8r	.	8a/	-o,	.	8cc#\	-o,	.
.	8cc# 8e/	.	8r	.	.	8r	.	.
(<4E\	8r	.	4a/	ne]	.	4cc#\	ne	.
.	8cc# 8a/	.	.	.	.	.	.	.
!!LO:PB:g=original
=25	=25	=25	=25	=25	=25	=25	=25	=25
*	*^	*	*	*	*	*	*	*
4E#X\	8r	8rgyy	.	4g#/	.	.	4cc#\	in	.
.	8cc# 8b/	(4g#\	.	.	.	.	.	.	.
4F#\	8r	.	.	4f#/	.	.	4cc#\	fu-	.
.	8cc# 8a/	4f#\	.	.	.	.	.	.	.
4F##X\	8r	.	.	4e#X/	.	.	4cc#\	-ro-	.
!	!LO:TX:a:t=ch	!	!	!	!	!	!	!	!
.	(8cc#L 8b/	4e#X\	.	.	.	.	.	.	.
4G#\	8dd/)	.	.	4en/	.	.	8dd\L	-re	.
.	8eeJ 8b 8en/	8e\)	.	.	.	.	8ee\J	.	.
*	*v	*v	*	*	*	*	*	*	*
=26	=26	=26	=26	=26	=26	=26	=26	=26
!	!	!	!LO:ACC:color=dodgerblue	!	!	!	!	!
4A\	8r	.	2gn/	.	.	2ee\	tu-	.
.	8ee 8cc# 8gn\	.	.	.	.	.	.	.
4A#X\	8r	.	.	.	.	.	.	.
.	8cc# 8g 8e/	.	.	.	.	.	.	.
!	!	!	!LO:TX:t=P:problem:flag.color=dodgerblue	!	!	!	!	!
4B\)	8r	.	8f#/	.	.	8dd\	-o	.
.	8dd 8f# 8d/	.	8r@	.	.	8r	.	.
(4An\	8r	.	[4dd\	ar-	.	8.ff#\	ar-	.
.	8dd 8b 8f#/	.	.	.	.	.	.	.
.	.	.	.	.	.	16ee\	-guas	.
=27	=27	=27	=27	=27	=27	=27	=27	=27
4G#\	8r	.	4dd\]	.	.	2.ee\	me,	.
.	8b 8e/	.	.	.	.	.	.	.
4E\	8r	.	8.cc#\	-gu-	.	.	.	.
.	8ee 8g# 8e/	.	.	.	.	.	.	.
.	.	.	16b#X\	-as	.	.	.	.
4A\	8r	.	[2cc#\	me	.	.	.	.
.	8cc# 8a 8e/	.	.	.	.	.	.	.
4G#\	8r	.	.	.	.	8.ee\	ar-	.
.	8cc# 8e 8c#/	.	.	.	.	.	.	.
.	.	.	.	.	.	16dd\	-guas	.
=28	=28	=28	=28	=28	=28	=28	=28	=28
4F#\	8r	.	4cc#\]	.	.	2.dd\	me	.
.	8a 8d/	.	.	.	.	.	.	.
4Dn\	8r	.	8.b/	do-	.	.	.	.
.	8dd 8f# 8d/	.	.	.	.	.	.	.
.	.	.	16a#X/	-mi-	.	.	.	.
4Gn\	8r	.	8b/	-ne	.	.	.	.
.	8b 8gn 8d/	.	8r	.	.	.	.	.
4F#\	8r	.	4b/	ne	.	8.dd\L	ne	.
.	8b 8d 8B/	.	.	.	.	.	.	.
.	.	.	.	.	.	16cc#\Jk	.	.
!!LO:LB:g=original
=29	=29	=29	=29	=29	=29	=29	=29	=29
4E#X\	8r	.	4b/	.	.	4cc#\	in	.
.	8b 8g#X 8c#X/	.	.	.	.	.	.	.
4F#\	8r	.	4a/	.	.	8dd\L	fu-	.
.	8a 8f# 8c#/	.	.	.	.	8cc#\J	.	.
4D\	8r	.	4a/	.	.	4b\	-ro-	.
.	8b 8a 8f#/	.	.	.	.	.	.	.
4AA\	8r	.	4gn/	.	.	4cc#\	-re	.
.	8cc# 8gn 8e/	.	.	.	.	.	.	.
=30	=30	=30	=30	=30	=30	=30	=30	=30
4DD\	8ddL 8f# 8d/	.	4f#/	.	.	(4.dd\	tu-	.
.	(8ddJ 8a 8f#/	.	.	.	.	.	.	.
4GG#\	8fn/L)	.	4fn/	.	.	.	.	.
.	8dd#XJ 8b 8f/	.	.	.	.	8dd#X\)	.	.
4Cn 4CCn\)	8eeL 8ccn 8e/	.	8e/	.	.	8ee\	o	.
.	8g#J 8e/	.	8r	.	.	8r	.	.
(4B\	8r	.	[4ee\	ar-	.	8.ggn\	ar-	.
.	8ee 8gn 8e/	.	.	.	.	.	.	.
.	.	.	.	.	.	16ff#\	-guas	.
=31	=31	=31	=31	=31	=31	=31	=31	=31
4A#X\	8r	.	4ee\]	.	.	2ff#\	me	.
.	8cc#X 8f#X 8e/	.	.	.	.	.	.	.
4F#\	8r	.	8.dd\	-gu-	.	.	.	.
.	8a#X 8f# 8e/	.	.	.	.	.	.	.
.	.	.	16cc#\	-as	.	.	.	.
4B\)	8r	.	[2dd\	me	.	4ff#\	ar-	.
.	8f# 8d/	.	.	.	.	.	.	.
8.G#X\L	8r	.	.	.	.	8.ee#X\	-gu-	.
.	8b 8f# 8d/	.	.	.	.	.	.	.
16F#\Jk	.	.	.	.	.	16ff#\	-as	.
=32	=32	=32	=32	=32	=32	=32	=32	=32
(4E#X\	8r	.	4dd\]	.	.	[2gg#\	me	.
.	8b 8g# 8d/	.	.	.	.	.	.	.
4G#\	8r	.	8cc#\	ar-	.	.	.	.
.	(8b#X 8g# 8f#/	.	8b#X\	-guas	.	.	.	.
8c#\)	8cc#L 8en/)	.	(8bn\L	me	.	8gg#\]	.	.
8r	8g# 8e/	.	16cc#\L	.	.	8r	.	.
.	.	.	16b\JJ)	.	.	.	.	.
(4C#\	8a 8f#/	.	8a/	.	.	4cc#\	ne	.
.	8b#J 8g# 8e/	.	8g#/	ne	.	.	.	.
!!LO:LB:g=original
=33	=33	=33	=33	=33	=33	=33	=33	=33
*	*^	*	*	*	*	*	*	*
(4F#\)	4a/	8f#\L	.	8a/	.	.	8cc#\	in	.
.	.	8c#\J	.	8f#/	.	.	8ee\	fu-	.
8AA/L	8cc#/L	8f#\L	.	8f#/	.	.	8dd\	-ro-	.
8BB/J	8b/J	8d\J	.	8g#/	.	.	8b\	-re	.
4C#\)	4a/	8f#\L	.	(4f#/	.	.	(4a/	tu-	.
.	.	8c#\	.	.	.	.	.	.	.
(<4C#\	4g# 4e#X/	8B\	.	4e#X/)	.	.	4g#/)	.	.
.	.	8c#\J	.	.	.	.	.	.	.
*	*v	*v	*	*	*	*	*	*	*
=34	=34	=34	=34	=34	=34	=34	=34	=34
4FF#\	8f#L 8A/	.	2f#/	.	.	2f#/	-o	.
.	(8f#J 8A/	.	.	.	.	.	.	.
4GGn\	8B/L)	.	.	.	.	.	.	.
.	(8f#J 8B/	.	.	.	.	.	.	.
!	!	!	!LO:TX:a:t=tutti	!	!	!LO:TX:a:t=tutti	!	!
!	!	!	!LO:TX:a:t=alto:color=dodgerblue	!	!	!LO:TX:a:t=Sopr:color=dodgerblue	!	!
4GG#X\	8B#X'/L)	.	4r	.	.	4r	.	.
.	(8f# 8B#/	.	.	.	.	.	.	.
4AA\	8c#'/)	.	4f#/	.	.	4f#/	ne-	.
.	(8f#J 8c#/	.	.	.	.	.	.	.
=35	=35	=35	=35	=35	=35	=35	=35	=35
!	!	!	!	!	!LO:DY:a	!LO:ACC:color=dodgerblue	!	!LO:DY:a
4AA#X\	8gnL 8e'/)	.	4e/	.	<	4gn/	-que	<
.	(8g 8e 8c#/	.	.	.	.	.	.	.
4BB\	8g#X 8d'/)	.	4d/	.	.	4g#X/	in	.
.	(8g#J 8e#X 8d/	.	.	.	.	.	.	.
4BB#X\	8aL 8f#/)	.	4f#/	.	.	4a/	i-	.
.	(8a 8f# 8d#X/J	.	.	.	.	.	.	.
4C#\	8a#X 8e#'/)L	.	4e/	.	.	4a#X/	-ram	.
.	(8a# 8gn 8e#/J	.	.	.	.	.	.	.
=36	=36	=36	=36	=36	=36	=36	=36	=36
4D\	8bL 8gn'/)	.	(4gn/	.	.	(4b\	tu-	.
.	(8b 8g 8dn/	.	.	.	.	.	.	.
4D#X\	8b#X 8f#'/)	.	4f#/)	.	.	4b#X\)	.	.
!	!LO:TX:a:t=his\na	!	!	!	!	!	!	!
.	(8b#J 8an 8f#/	.	.	.	.	.	.	.
4E\	8cc# 8a'/)L	.	8a/	.	[	8cc#\	-am	[
.	(8cc# 8a 8e/J	.	8r	.	.	8r	.	.
!	!	!	!LO:ACC:color=dodgerblue	!	!	!	!	!
4E#X\	8b# 8g#X'/)L	.	4g#X/	.	.	4dd\	cor-	.
.	(8dd 8b# 8g#/J	.	.	.	.	.	.	.
=37	=37	=37	=37	=37	=37	=37	=37	=37
!	!	!	!	!	!LO:DY:a	!	!	!LO:DY:a
4F#\	8cc#L 8a'/)	.	4.a/	.	>	4.cc#\	-ri-	>
.	8cc#J 8a 8f#/	.	.	.	.	.	.	.
4C#\	8r	.	.	.	.	.	.	.
.	8a 8f# 8c#/	.	8f#/	.	.	8a\	-pi-	.
4AA\	8r	.	4f#/	.	.	4f#/	-as	.
.	8f# 8c#/	.	.	.	.	.	.	.
4BB\	8r	.	4f#/	.	]]	4g#/	me	]]
.	8f# 8d 8B/	.	.	.	.	.	.	.
!!LO:PB:g=original
=38	=38	=38	=38	=38	=38	=38	=38	=38
4C#/	8r	.	4..f#/	.	.	4..a/	Do-	.
.	8a 8f# 8c#/	.	.	.	.	.	.	.
4AA/	8r	.	.	.	.	.	.	.
.	8f# 8c#/	.	.	.	.	.	.	.
.	.	.	16f#/	.	.	16f#/	-mi-	.
4FF#/)	8r	.	8f#/	.	.	8f#/	-ne	.
.	8f# 8c# 8A/	.	8r	.	.	8r	.	.
(4F#\	[8f#/L	.	4f#/	.	.	4f#/	ne-	.
.	(8f#]J 8c# 8A/	.	.	.	.	.	.	.
=39	=39	=39	=39	=39	=39	=39	=39	=39
*^	*	*	*	*	*	*	*	*
4E\	1r	8g#XL 8d'/)	.	4e/	.	.	4g#X/	-que	.
.	.	(8g#J 8e 8B/	.	.	.	.	.	.	.
!	!	!	!	!	!	!LO:DY:a	!	!	!LO:DY:a
4A\	.	8aL 8c#'/)	.	4c#/	.	<	4a/	in	<
.	.	(8aJ 8e 8c#/	.	.	.	.	.	.	.
4Gn\	.	8bL 8d'/)	.	4d/	.	.	4b\	i-	.
.	.	(8bJ 8gn 8d/	.	.	.	.	.	.	.
4F#\	.	8cc#L 8e'/)	.	4e/	.	.	4cc#X\	-ram	.
.	.	(8cc#J 8a#X 8e/	.	.	.	.	.	.	.
=40	=40	=40	=40	=40	=40	=40	=40	=40	=40
4B\	1rGG	8ddL 8b 8d'/)	.	4d/	.	.	4dd\	tu-	.
.	.	(8ddJ 8b 8f#/	.	.	.	.	.	.	.
4A\	.	8eeL 8cc#'/)	.	4a/	.	.	4ee\	.	.
.	.	(8eeJ 8cc# 8a#X/	.	.	.	.	.	.	.
4d\)	.	8ee#XL 8g#/)	.	4g#/	.	.	4ee#X\	-am	.
.	.	((8ee#J 8b 8g#/	.	.	.	.	.	.	.
4D\	.	8ff#L 8f#/))	.	4f#/	.	[	4ff#\	cor-	[
.	.	8ff#J 8a# 8f#/	.	.	.	.	.	.	.
=41	=41	=41	=41	=41	=41	=41	=41	=41	=41
*	*	*^	*	*	*	*	*	*	*
!LO:TX:b:t=ped	!	!	!	!	!	!	!LO:DY:a	!	!	!LO:DY:a
(<4C#/	1c# 1A 1C#	(2ff#/	8cc#L 8a 8f#\	.	2.a/	.	f	(2ff#\	-ri-	f
.	.	.	8cc#J 8a 8f#\	.	.	.	.	.	.	.
4F#/	.	.	8r	.	.	.	.	.	.	.
.	.	.	8cc# 8a 8f#\	.	.	.	.	.	.	.
4A/	.	4cc#/)	8r	.	.	.	.	4cc#\)	.	.
.	.	.	8a 8f#\	.	.	.	.	.	.	.
4c#/)	.	4rgg	8r	.	4f#/	.	.	4a\	-pias	.
.	.	.	[>8a [>8f#\	.	.	.	.	.	.	.
=42	=42	=42	=42	=42	=42	=42	=42	=42	=42	=42
!	!	!	!	!	!	!	!	!	!	!LO:DY:a
(4C#/	1C#	2cc#/	8a]L 8f#\]	.	4.a/	.	.	4.cc#\	me	>
.	.	.	8aJ 8f#\	.	.	.	.	.	.	.
4F#/	.	.	8r	.	.	.	.	.	.	.
.	.	.	8a 8f#\	.	8f#/	.	.	8a/	cor-	.
8A/)	.	2ryy	8r	.	4f#/	.	.	4a/	-ri-	.
8r	.	.	8f# 8c#/	.	.	.	.	.	.	.
(4C#/	.	.	8r	.	8f#/	.	.	8f#/	-pias	]
.	.	.	8f# 8c# 8A/	.	8f#/	.	.	8f#/	me	.
!!LO:LB:g=original
*	*	*v	*v	*	*	*	*	*	*	*
=43	=43	=43	=43	=43	=43	=43	=43	=43	=43
!	!	!	!	!	!	!LO:DY:a	!	!	!LO:DY:a
8BB#X/)	[1BB#	8f#L 8d/	.	[>1f#	.	p	[1dd	Do-	p
8r	.	8f#J 8d 8A/	.	.	.	.	.	.	.
8BB#/	.	8r	.	.	.	.	.	.	.
8r	.	8f# 8d 8A/	.	.	.	.	.	.	.
8BB#/	.	8r	.	.	.	.	.	.	.
8r	.	8f# 8d 8A/	.	.	.	.	.	.	.
8BB#/	.	8r	.	.	.	.	.	.	.
!	!	!LO:TX:t=P:problem:błędne wyświetlanie łuku	!	!	!	!	!	!	!
8r	.	(<(8a/ 8f#/ 8d/	.	.	.	.	.	.	.
=44	=44	=44	=44	=44	=44	=44	=44	=44	=44
8BB#X/	2BB#\]	8ddL 8d'/))	.	2f#/]	.	.	2dd\]	.	.
8r	.	8f#J 8d/	.	.	.	.	.	.	.
8BB#/	.	8r	.	.	.	.	.	.	.
8r	.	(8f# 8d 8A/	.	.	.	.	.	.	.
8C#/	2C#\	8e#XL 8G#'/)	.	2c#/	.	.	2e#X/	-mi-	.
8r	.	8e#J 8c# 8G#/	.	.	.	.	.	.	.
(4C#/	.	8r	.	.	.	.	.	.	.
.	.	(8g# 8e# 8B/	.	.	.	.	.	.	.
=45	=45	=45	=45	=45	=45	=45	=45	=45	=45
8FF#/)	[1FF#	8f# 8A'/)	.	2A/	.	.	2f#/	-ne.	.
8r	.	4f# 4A/	.	.	.	.	.	.	.
(4F#/	.	.	.	.	.	.	.	.	.
.	.	4f# 4A/	.	.	.	.	.	.	.
4E#X/	.	.	.	2r	.	.	2r	.	.
.	.	4f# 4A/	.	.	.	.	.	.	.
4En/	.	.	.	.	.	.	.	.	.
.	.	[8f# [8A/	.	.	.	.	.	.	.
=46	=46	=46	=46	=46	=46	=46	=46	=46	=46
4D#X/	2FF#\]	8f#] 8A/]	.	1r	.	.	1r	.	.
.	.	4f# 4A/	.	.	.	.	.	.	.
4Dn/	.	.	.	.	.	.	.	.	.
.	.	8f# 8A/	.	.	.	.	.	.	.
8C#/)	8C#\	8f# 8A/	.	.	.	.	.	.	.
8r	8ryy	8r	.	.	.	.	.	.	.
8C#/	8AA\	8f# 8A/	.	.	.	.	.	.	.
8r	8ryy	8r	.	.	.	.	.	.	.
*v	*v	*	*	*	*	*	*	*	*
=47	=47	=47	=47	=47	=47	=47	=47	=47
1C# 1FF#;	1f# 1A;	.	1r;	.	.	1r;	.	.
==	==	==	==	==	==	==	==	==
*-	*-	*-	*-	*-	*-	*-	*-	*-
!!!system-decoration: [(g1{s3,s4})]
!!!RDF**kern: > = above
!!!RDF**kern: < = below
!!!RDF**kern: @ = marked note, color=dodgerblue
!!!ENC: Kamil Watkowski
!!!END: 2021-07-11
